X:1000
T:A Child this Day is Born
R:March
C:Trad. Sandys 1833
O:England
Z:Paul Hardy's Xmas Tunebook 2019 (see www.paulhardy.net). Creative Commons cc by-nc-sa licenced.
M:4/4
L:1/8
Q:1/4=140
K:D
A2|:"D"A2 d2 "A"c2 AB|c6 e2|"Bm"d2 c2 "G"dc B2|"A"A6 A2|
"D"A2 D2 "G"B2 d2|"D"A3B "A7"A2 G2|"D"F2 d2 "A"F2 E2|"D"D6 A2:|
W:A Child this day is born,
W:A Child of high renown.
W:Most worthy of a scepter,
W:A scepter and a crown.
W:
W:Noëls, noëls, noëls,
W:Noëls sing all we may,
W:Because the King of all kings
W:Was born this blessèd day.

